Carto/POI/SVG/mountain-pass_solid_24px.svg

<svg width="24" height="24" viewBox="0 0 24 24" fill="none" xmlns="http://www.w3.org/2000/svg">
<path d="M16 4L12.88 5L10 2L2 12.88V22H5.91L9.66 19.06C9.79956 18.9587 9.91432 18.827 9.99564 18.675C10.077 18.5229 10.1227 18.3543 10.1294 18.182C10.1362 18.0097 10.1037 17.8381 10.0345 17.6801C9.96535 17.5221 9.86123 17.3819 9.73 17.27L7.64 15.4C7.41993 15.2375 7.2398 15.0269 7.11331 14.7843C6.98681 14.5417 6.91728 14.2735 6.91 14C6.96129 13.4612 7.20852 12.9599 7.60481 12.5913C8.0011 12.2227 8.5189 12.0123 9.06 12L13.87 11.44L14.47 12.09L10.15 12.99C9.97018 13.0116 9.80302 13.0936 9.67587 13.2226C9.54871 13.3516 9.46908 13.5199 9.45 13.7C9.45866 13.846 9.51095 13.986 9.6001 14.1018C9.68925 14.2177 9.81115 14.3042 9.95 14.35L14.88 16.41C15.4804 16.6184 16.0062 16.9987 16.392 17.5037C16.7779 18.0087 17.0067 18.616 17.05 19.25C17.05 19.3 16.83 20.98 16.71 21.96H22V13L16 4ZM10.2 5.1L11.43 6.38L12.3 7.28L13.48 6.9L15.17 6.36L16.93 9H7.33L10.2 5.1Z" fill="#0F1621"/>
</svg>

<svg xmlns="http://www.w3.org/2000/svg" width="24" height="24" viewBox="0 0 24 24"><rect width="24" height="24" style="fill:none"/><path d="M16,4,12.88,5,10,2,2,12.88V22H5.91l3.75-2.94a1.14,1.14,0,0,0,.07-1.79L7.64,15.4A1.8,1.8,0,0,1,6.91,14a2.21,2.21,0,0,1,2.15-2l4.81-.56.6.65-4.32.9a.8.8,0,0,0-.7.71.73.73,0,0,0,.5.65l4.93,2.06a3.24,3.24,0,0,1,2.17,2.84c0,.05-.22,1.73-.34,2.71H22V13ZM10.2,5.1l1.23,1.28.87.9,1.18-.38,1.69-.54L16.93,9H7.33Z"/></svg>
